X:1
T:Erchless Castle
M:C|
L:1/8
Q:80
C:
S:March
K:HP
|: {g}e/2d/2 | \
{g}c/4{d}A3/4{g}c/4e3/4{ag}ae/4a3/4 | \
{fg}fe{gef}e{ag}a |
f3/4g/4a3/4e/4{g}f/4a3/4c/4e3/4 | \
{gfg}f{g}B{GdGe}B{g}e3/4d/4 | \
{g}c/4{d}A3/4{g}c/4e3/4{ag}ae/4a3/4 |
{fg}fe{gef}e{ag}a | \
f3/4g/4a3/4e/4{g}f/4a3/4e/4a3/4 | \
{cd}c{e}A{GAG}A ::
{g}e/2d/2 | \
{g}c/4{d}A3/4{g}c/4e3/4{gef}e{g}d3/4c/4 | \
{Gdc}d3/4e/4{g}f3/4d/4a3/4g/4{a}f3/4e/4 |
{g}f3/4g/4a3/4e/4{g}f/4a3/4c/4e3/4 | \
{gfg}f{g}B{GdGe}B{g}e3/4d/4 | \
{g}c/4{d}A3/4{g}c/4e3/4{gef}e{g}d3/4c/4 |
{Gdc}d3/4e/4{g}f3/4d/4a3/4g/4{a}f3/4e/4 | \
f3/4g/4a3/4e/4{g}f/4a3/4e/4a3/4 | \
{cd}c{e}A{GAG}A :|
